X: 43466
T: Yellow Cat
R: reel
M: 4/4
K: Dmajor
|:e|"D" fedf edBc|"G" d2 B2 A2 F2|"D" fedB edBA|"A" e2 A2 e2 A2|
"D" fedf edBc|"G" d2 B2 A2 F2|"D" A,2 D2 F2 AB|AFEF D3:|
|:B,|A,2 D2 F2 F2|FEDF A2 A2|A,2 D2 F2 AB|AFEF D3 B,|
A,2 D2 F2 F2|FEDF A2 A2|A,2 D2 F2 AB|AFEF D3:|

